modules/feathericon/icons/audio-player.svg

<?xml version="1.0" encoding="UTF-8"?>
<svg width="8px" height="14px" viewBox="0 0 8 14" version="1.1" xmlns="http://www.w3.org/2000/svg" xmlns:xlink="http://www.w3.org/1999/xlink">
    <!-- Generator: sketchtool 48.1 (47250) - http://www.bohemiancoding.com/sketch -->
    <title>audio-player</title>
    <desc>Created with sketchtool.</desc>
    <defs></defs>
    <g id="devices" stroke="none" stroke-width="1" fill="none" fill-rule="evenodd">
        <g id="audio-player" fill="#000000">
            <path d="M0,1 C0,1 0,3.16500708e-16 1,3.16500708e-16 C1,3.16500708e-16 7,-3.95625885e-16 7,3.16500708e-16 C8,-2.27553215e-14 8,1 8,1 L8,13 C8,13 8,14 7,14 C7,14 1,14 1,14 C0,14 0,13 0,13 L0,1 Z M4,13 C5.65685425,13 7,11.6568542 7,10 C7,8.34314575 5.65685425,7 4,7 C2.34314575,7 1,8.34314575 1,10 C1,11.6568542 2.34314575,13 4,13 Z M4,12 C2.8954305,12 2,11.1045695 2,10 C2,8.8954305 2.8954305,8 4,8 C5.1045695,8 6,8.8954305 6,10 C6,11.1045695 5.1045695,12 4,12 Z M1,1 L7,1 L7,6 L1,6 L1,1 Z" id="Shape"></path>
        </g>
    </g>
</svg>

<svg width="8" height="14" viewBox="0 0 8 14" xmlns="http://www.w3.org/2000/svg"><path d="M0 1s0-1 1-1h6c1 0 1 1 1 1v12s0 1-1 1H1c-1 0-1-1-1-1V1zm4 12a3 3 0 1 0 0-6 3 3 0 0 0 0 6zm0-1a2 2 0 1 1 0-4 2 2 0 0 1 0 4zM1 1h6v5H1V1z" fill="#000" fill-rule="evenodd"/></svg>
